X:340
T: ES REISTEN DREI SCHAEFER AUS BRESLAU RAUS
N: E1492
O: Europa, Mitteleuropa, Deutschland, Schlesien, Liegnitz
R: Staende - Lied, Hirten -,  Schaefer - Lied
M: 3/4
L: 1/16
K: G
D4 | G2G2G4B4 | B3AA6
G2 | A3AA4c4 | c4B4
D4 | G2G2G4B4 | B3AA6
G2 | A3AA4c4 | c4B4z2
G2 | d3de6d2 | d3cc6
c2 | B3BB4G4 | A3AA4
B4 | c8B4 | d8
c4 | B3Bd2c2B4 | A4G4

@@@ Tune index: 5024
